images/services-990.svg

<svg width="96" height="562" viewBox="0 0 96 562" fill="none" xmlns="http://www.w3.org/2000/svg">
<path d="M49 512V256V0" stroke="#E5ECF4" stroke-width="15"/>
<circle cx="48" cy="174" r="48" fill="#FCB72B"/>
<path fill-rule="evenodd" clip-rule="evenodd" d="M53.7996 150H33.0107C30.8039 150.003 29.0156 151.791 29.0128 153.998V193.977C29.0156 196.183 30.8039 197.972 33.0107 197.974H53V196.544C52.9962 192.942 54.0625 189.419 56.064 186.425C56.2759 186.107 56.2333 185.685 55.964 185.416L50.367 179.818C49.8497 179.301 49.5755 178.588 49.6116 177.857C49.648 177.126 49.9916 176.445 50.5573 175.981C51.6469 175.148 53.1879 175.267 54.137 176.256L62.0296 184.149L63.1602 183.018L57.7975 177.654V153.998C57.7947 151.791 56.0064 150.003 53.7996 150ZM56.1983 176.055L55.2676 175.124C53.7336 173.557 51.2665 173.394 49.5395 174.746C48.626 175.496 48.0717 176.599 48.0139 177.78C47.9563 178.962 48.4001 180.112 49.2364 180.949L54.3777 186.091C52.4603 189.18 51.4321 192.739 51.4065 196.375H33.0107C31.6862 196.375 30.612 195.301 30.612 193.977V191.578H50.6013V189.979H30.612V156.397H56.1983V176.055ZM30.612 154.797H56.1983V153.998C56.1983 152.673 55.1241 151.599 53.7996 151.599H33.0107C31.6862 151.599 30.612 152.673 30.612 153.998V154.797ZM60.155 168.6L59.0768 169.779L63.9804 174.274C65.1348 175.336 65.7928 176.833 65.7932 178.401V197.974H67.3923V178.401C67.3904 176.384 66.5444 174.461 65.0592 173.095L60.155 168.6ZM33.8103 164.392H37.0086C37.8919 164.392 38.6077 163.677 38.6077 162.793V159.595C38.6077 158.712 37.8919 157.996 37.0086 157.996H33.8103C32.9269 157.996 32.2111 158.712 32.2111 159.595V162.793C32.2111 163.677 32.9269 164.392 33.8103 164.392ZM33.8103 159.595H37.0086V162.793H33.8103V159.595ZM45.0043 164.392H41.806C40.9227 164.392 40.2068 163.677 40.2068 162.793V159.595C40.2068 158.712 40.9227 157.996 41.806 157.996H45.0043C45.8876 157.996 46.6034 158.712 46.6034 159.595V162.793C46.6034 163.677 45.8876 164.392 45.0043 164.392ZM45.0043 159.595H41.806V162.793H45.0043V159.595ZM49.8017 164.392H53C53.8834 164.392 54.5992 163.677 54.5992 162.793V159.595C54.5992 158.712 53.8834 157.996 53 157.996H49.8017C48.9184 157.996 48.2026 158.712 48.2026 159.595V162.793C48.2026 163.677 48.9184 164.392 49.8017 164.392ZM49.8017 159.595H53V162.793H49.8017V159.595ZM37.0086 172.388H33.8103C32.9269 172.388 32.2111 171.672 32.2111 170.789V167.591C32.2111 166.707 32.9269 165.991 33.8103 165.991H37.0086C37.8919 165.991 38.6077 166.707 38.6077 167.591V170.789C38.6077 171.672 37.8919 172.388 37.0086 172.388ZM37.0086 167.591H33.8103V170.789H37.0086V167.591ZM33.8103 180.384H37.0086C37.8919 180.384 38.6077 179.668 38.6077 178.785V175.586C38.6077 174.703 37.8919 173.987 37.0086 173.987H33.8103C32.9269 173.987 32.2111 174.703 32.2111 175.586V178.785C32.2111 179.668 32.9269 180.384 33.8103 180.384ZM33.8103 175.586H37.0086V178.785H33.8103V175.586ZM45.0043 172.388H41.806C40.9227 172.388 40.2068 171.672 40.2068 170.789V167.591C40.2068 166.707 40.9227 165.991 41.806 165.991H45.0043C45.8876 165.991 46.6034 166.707 46.6034 167.591V170.789C46.6034 171.672 45.8876 172.388 45.0043 172.388ZM45.0043 167.591H41.806V170.789H45.0043V167.591ZM49.8017 172.388H53C53.8834 172.388 54.5992 171.672 54.5992 170.789V167.591C54.5992 166.707 53.8834 165.991 53 165.991H49.8017C48.9184 165.991 48.2026 166.707 48.2026 167.591V170.789C48.2026 171.672 48.9184 172.388 49.8017 172.388ZM49.8017 167.591H53V170.789H49.8017V167.591ZM45.0043 180.384H41.806C40.9227 180.384 40.2068 179.668 40.2068 178.785V175.586C40.2068 174.703 40.9227 173.987 41.806 173.987H45.0043C45.8876 173.987 46.6034 174.703 46.6034 175.586V178.785C46.6034 179.668 45.8876 180.384 45.0043 180.384ZM45.0043 175.586H41.806V178.785H45.0043V175.586ZM33.8103 188.38H37.0086C37.8919 188.38 38.6077 187.664 38.6077 186.78V183.582C38.6077 182.699 37.8919 181.983 37.0086 181.983H33.8103C32.9269 181.983 32.2111 182.699 32.2111 183.582V186.78C32.2111 187.664 32.9269 188.38 33.8103 188.38ZM33.8103 183.582H37.0086V186.78H33.8103V183.582ZM45.0043 188.38H41.806C40.9227 188.38 40.2068 187.664 40.2068 186.78V183.582C40.2068 182.699 40.9227 181.983 41.806 181.983H45.0043C45.8876 181.983 46.6034 182.699 46.6034 183.582V186.78C46.6034 187.664 45.8876 188.38 45.0043 188.38ZM45.0043 183.582H41.806V186.78H45.0043V183.582ZM44.2047 193.177H42.6056V194.776H44.2047V193.177Z" fill="#495567"/>
<circle cx="48" cy="344" r="48" fill="#FCB72B"/>
<path d="M45.0698 358.301C44.8521 358.301 44.6389 358.39 44.4852 358.543C44.3314 358.697 44.2429 358.911 44.2429 359.128C44.2429 359.345 44.3314 359.559 44.4852 359.713C44.6389 359.866 44.8521 359.955 45.0698 359.955C45.2872 359.955 45.5003 359.866 45.6544 359.713C45.8082 359.559 45.8967 359.346 45.8967 359.128C45.8967 358.911 45.8082 358.697 45.6544 358.543C45.5003 358.39 45.2872 358.301 45.0698 358.301Z" fill="black"/>
<path fill-rule="evenodd" clip-rule="evenodd" d="M61.5391 344.419L59.6121 335.713C60.1321 335.643 60.5908 335.378 60.9134 334.995C61.2943 335.233 61.7435 335.371 62.2248 335.371H63.8786C64.3353 335.371 64.7054 335.001 64.7054 334.544V331.237C64.7054 330.78 64.3353 330.41 63.8786 330.41H62.2248C61.7293 330.41 61.2674 330.557 60.8795 330.808C60.501 330.38 59.9483 330.11 59.3333 330.11H54.4522C53.5753 330.11 52.8246 330.66 52.5258 331.433H50.5659C49.3805 331.433 48.416 332.397 48.416 333.583C48.416 334.768 49.3805 335.732 50.5659 335.732H54.822V337.399C54.822 337.856 55.1922 338.226 55.6489 338.226C56.1056 338.226 56.4758 337.856 56.4758 337.399V335.732H57.9228L59.9984 345.111L56.0701 352.107C55.6408 352.869 54.8314 353.342 53.957 353.342H44.1505C43.74 349.899 40.8046 347.221 37.2532 347.221C35.6818 347.221 34.1993 347.733 32.9658 348.701L32.9609 348.705C31.4922 349.86 30.5691 351.518 30.354 353.342H28.6557C28.7636 347.398 33.6328 342.596 39.6021 342.596H45.4677C45.9306 342.596 46.3075 342.972 46.3075 343.436V350.862C46.3075 351.318 46.6776 351.689 47.1344 351.689H51.5342C53.3291 351.689 54.9832 350.712 55.8508 349.142C56.2523 348.415 56.4651 347.592 56.4658 346.762L56.47 344.015C56.4706 343.558 56.1008 343.188 55.6441 343.187H55.6431C55.187 343.187 54.8169 343.556 54.8162 344.013L54.812 346.76C54.8117 347.312 54.6702 347.859 54.4034 348.342C53.8265 349.386 52.7271 350.034 51.5342 350.034H47.9612V343.435C47.9612 343.012 47.8547 342.613 47.6676 342.263C48.4105 341.834 48.9118 341.031 48.9118 340.114C48.9118 338.746 47.7988 337.633 46.4312 337.633H43.4131C43.1231 337.633 42.845 337.683 42.5862 337.775V330.522C42.5862 329.154 41.4732 328.041 40.1056 328.041H34.7713C30.9044 328.041 27.6886 330.88 27.0975 334.583C27.0727 334.662 27.0591 334.746 27.0591 334.833C27.0591 334.835 27.0593 334.838 27.0594 334.84C27.0596 334.843 27.0598 334.845 27.0598 334.847C27.0203 335.164 27 335.486 27 335.813V340.114C27 341.356 27.9176 342.388 29.1105 342.567L30.9415 344.398C28.5155 346.696 27 349.946 27 353.544V354.169C27 354.626 27.3702 354.996 27.8269 354.996H32.4738C32.4632 355.049 32.4574 355.105 32.4574 355.161C32.4574 356.361 32.9015 357.459 33.6328 358.301H27.8269C27.3702 358.301 27 358.671 27 359.128C27 359.585 27.3702 359.955 27.8269 359.955H37.1576L37.1852 359.956C37.2079 359.956 37.2305 359.957 37.2532 359.957C39.8976 359.957 42.0491 357.806 42.0491 355.161C42.0491 355.105 42.0433 355.049 42.0326 354.996H53.957C55.259 354.996 56.4758 354.372 57.2384 353.34H58.2855C58.0501 353.913 57.9251 354.53 57.9251 355.161C57.9251 356.361 58.3692 357.459 59.1005 358.301H48.3773C47.9205 358.301 47.5504 358.671 47.5504 359.128C47.5504 359.585 47.9205 359.955 48.3773 359.955H62.6253C62.6573 359.956 62.689 359.957 62.7209 359.957C65.3653 359.957 67.5168 357.806 67.5168 355.161C67.5168 354.53 67.3918 353.913 67.1563 353.34H68.509C68.9658 353.34 69.3359 352.97 69.3359 352.513C69.3359 348.148 65.8653 344.579 61.5391 344.419ZM43.4131 339.287H46.4312C46.887 339.287 47.2581 339.658 47.2581 340.114C47.2581 340.57 46.887 340.941 46.4312 340.941H43.4131C42.957 340.941 42.5862 340.57 42.5862 340.114C42.5862 339.658 42.957 339.287 43.4131 339.287ZM28.656 335.711L28.656 335.711C28.6549 335.745 28.6537 335.779 28.6537 335.813V340.114C28.6537 340.57 29.0245 340.941 29.4803 340.941H29.4809H40.1053C40.5614 340.941 40.9322 340.57 40.9322 340.114V330.522C40.9322 330.066 40.5614 329.695 40.1053 329.695H34.7713C32.0268 329.695 29.699 331.512 28.9264 334.006H37.7057C38.1625 334.006 38.5326 334.376 38.5326 334.833C38.5326 335.29 38.1625 335.66 37.7057 335.66H28.6576L28.656 335.711ZM31.4771 342.595H33.3692C32.9719 342.821 32.5885 343.07 32.2196 343.337L31.4771 342.595ZM37.2852 358.303C39.0029 358.285 40.3953 356.883 40.3953 355.161C40.3953 355.105 40.4012 355.049 40.4118 354.996H34.0946C34.1053 355.049 34.1111 355.105 34.1111 355.161C34.1111 356.862 35.4693 358.25 37.1579 358.301H37.2532C37.2593 358.301 37.2654 358.301 37.2715 358.302C37.2761 358.302 37.2806 358.302 37.2852 358.303ZM32.0226 353.342C32.2274 352.029 32.9173 350.842 33.9829 350.005C33.9855 350.003 33.9877 350.001 33.9903 350C34.9289 349.264 36.0572 348.875 37.2532 348.875C39.8915 348.875 42.0849 350.814 42.4832 353.342H32.0226ZM63.0517 332.064H62.2248C61.7687 332.064 61.3979 332.435 61.3979 332.891C61.3979 333.347 61.7687 333.718 62.2248 333.718H63.0517V332.064ZM50.0698 333.583C50.0698 333.309 50.2923 333.086 50.5659 333.086H52.3876V333.668C52.3876 333.809 52.4018 333.946 52.4286 334.079H50.5659C50.2923 334.079 50.0698 333.856 50.0698 333.583ZM54.4522 334.079H55.6489H59.3333C59.5598 334.079 59.7442 333.895 59.7442 333.668V332.174C59.7442 331.948 59.5598 331.763 59.3333 331.763H54.4522C54.2258 331.763 54.0413 331.948 54.0413 332.174V333.668C54.0413 333.895 54.2258 334.079 54.4522 334.079ZM65.863 355.161C65.863 356.883 64.4706 358.285 62.7529 358.303C62.7507 358.302 62.7484 358.302 62.7462 358.302C62.7438 358.302 62.7415 358.302 62.7392 358.302C62.7331 358.301 62.727 358.301 62.7209 358.301H62.6256C60.937 358.25 59.5788 356.862 59.5788 355.161C59.5788 354.504 59.7836 353.869 60.1609 353.34H65.281C65.6583 353.869 65.863 354.504 65.863 355.161ZM61.3563 346.07L58.2032 351.686H67.6292C67.2274 348.56 64.5762 346.129 61.3563 346.07Z" fill="#495567"/>
<path d="M55.6489 341.533C56.1056 341.533 56.4758 341.163 56.4758 340.707C56.4758 340.25 56.1056 339.88 55.6489 339.88H55.646C55.1893 339.88 54.8204 340.25 54.8204 340.707C54.8204 341.163 55.1922 341.533 55.6489 341.533Z" fill="black"/>
<circle cx="48" cy="514" r="48" fill="#FCB72B"/>
<path fill-rule="evenodd" clip-rule="evenodd" d="M64.1713 512H66C66.3682 512 66.6667 511.702 66.6667 511.333V506C66.6667 505.632 66.3682 505.333 66 505.333H59.7453L58.6667 503.176V500.667C58.6667 500.298 58.3682 500 58 500H54C53.6318 500 53.3333 500.298 53.3333 500.667V503.333C53.3333 503.702 53.6318 504 54 504H57.588L58.6667 506.157V510C58.6667 508.895 57.7712 508 56.6667 508C55.5621 508 54.6667 508.895 54.6667 510V508.667C54.6667 508.298 54.3682 508 54 508H48.7487L46.6667 507.479V496.667C46.6667 495.194 45.4728 494 44 494H41.3333C39.8606 494 38.6667 495.194 38.6667 496.667V504H35.3333C34.2288 504 33.3333 504.895 33.3333 506V508H28.6667C28.3971 508 28.154 508.162 28.0509 508.412C27.9477 508.661 28.0047 508.947 28.1953 509.138L29.724 510.667L28.1953 512.195C28.0047 512.386 27.9477 512.673 28.0509 512.922C28.154 513.171 28.3971 513.333 28.6667 513.333H35.3333C36.4379 513.333 37.3333 512.438 37.3333 511.333V509.333H38.6667V516H36.6667C34.3489 516.003 32.3844 517.706 32.0533 520H30C29.6318 520 29.3333 520.298 29.3333 520.667V523.333C29.3333 523.702 29.6318 524 30 524H32V525.333H28.6667C28.2985 525.333 28 525.632 28 526V528.667C28 529.035 28.2985 529.333 28.6667 529.333H36C36 531.911 38.0893 534 40.6667 534C43.244 534 45.3333 531.911 45.3333 529.333H57.3333C57.3333 531.911 59.4227 534 62 534C64.5773 534 66.6667 531.911 66.6667 529.333H67.3333C67.5366 529.333 67.7288 529.241 67.8554 529.082C67.982 528.923 68.0291 528.715 67.9833 528.517L64.1713 512ZM54.6667 510C54.6667 511.105 55.5621 512 56.6667 512C57.7712 512 58.6667 511.105 58.6667 510V524H56.6667V523.333C56.6667 522.229 55.7712 521.333 54.6667 521.333V514C54.6667 513.632 54.3682 513.333 54 513.333H46.6667V511.521L48.5047 511.98C48.5576 511.993 48.6121 512 48.6667 512H54C54.3682 512 54.6667 511.702 54.6667 511.333V510ZM57.3333 502.667H54.6667V501.333H57.3333V502.667ZM32 528V526.667H29.3333V528H32ZM32 522.667H30.6667V521.333H32V522.667ZM65.3333 506.667H64V510.667H65.3333V506.667ZM60 506.667H62.6667V510.667H60V506.667ZM55.3333 523.333C55.3333 522.965 55.0349 522.667 54.6667 522.667H52V524H55.3333V523.333ZM48.5047 509.313C48.5576 509.327 48.6121 509.333 48.6667 509.333H53.3333V510.667H48.7487L44 509.479V508.187L48.5047 509.313ZM41.3333 495.333C40.597 495.333 40 495.93 40 496.667V499.333H42V498C42 497.632 42.2985 497.333 42.6667 497.333H45.3333V496.667C45.3333 495.93 44.7364 495.333 44 495.333H41.3333ZM40 500.667H42.6667C43.0349 500.667 43.3333 500.368 43.3333 500V498.667H45.3333V500.171L40 501.771V500.667ZM45.3333 504.667V501.563L40 503.163V504.667H45.3333ZM45.3333 506V507.146L43.4953 506.687C43.2961 506.637 43.0851 506.681 42.9232 506.808C42.7613 506.934 42.6667 507.128 42.6667 507.333V510C42.6667 510.306 42.8747 510.572 43.1713 510.647L45.3333 511.187V513.333H40V506H45.3333ZM53.3333 521.333V514.667H40V516H51.3333C51.7015 516 52 516.298 52 516.667V521.333H53.3333ZM36 511.333C36 511.702 35.7015 512 35.3333 512H30.276L31.138 511.138C31.3983 510.878 31.3983 510.456 31.138 510.195L30.276 509.333H36V511.333ZM34.6667 506V508H38.6667V505.333H35.3333C34.9651 505.333 34.6667 505.632 34.6667 506ZM40.6667 532.667C38.8266 532.664 37.3355 531.173 37.3333 529.333H38.6667C38.6667 530.438 39.5621 531.333 40.6667 531.333C41.7712 531.333 42.6667 530.438 42.6667 529.333H44C43.9978 531.173 42.5067 532.664 40.6667 532.667ZM40.6667 530C41.0349 530 41.3333 529.702 41.3333 529.333H40C40 529.702 40.2985 530 40.6667 530ZM45.3333 528H36V521.333C36 520.965 36.2985 520.667 36.6667 520.667H44.6667C45.0349 520.667 45.3333 520.965 45.3333 521.333V528ZM46.6667 528H48V520.667C47.9978 518.827 46.5067 517.336 44.6667 517.333H36.6667C34.8266 517.336 33.3355 518.827 33.3333 520.667V528H34.6667V521.333C34.6667 520.229 35.5621 519.333 36.6667 519.333H44.6667C45.7712 519.333 46.6667 520.229 46.6667 521.333V528ZM47.9267 517.333H50.6667V524H49.3333V520.667C49.3335 519.411 48.8262 518.209 47.9267 517.333ZM62 532.667C60.16 532.664 58.6689 531.173 58.6667 529.333H60C60 530.438 60.8954 531.333 62 531.333C63.1046 531.333 64 530.438 64 529.333H65.3333C65.3311 531.173 63.84 532.664 62 532.667ZM62 530C62.3682 530 62.6667 529.702 62.6667 529.333H61.3333C61.3333 529.702 61.6318 530 62 530ZM60 528V523.333H61.3333V522H60V512H62.8L66.492 528H60ZM49.3333 528H58.6667V525.333H49.3333V528ZM64 522H62.6667V523.333H64V522ZM37.3333 522H38.6667V523.333H37.3333V522ZM41.3333 522H40V523.333H41.3333V522ZM42.6667 522H44V523.333H42.6667V522ZM56.6667 509.333C57.0349 509.333 57.3333 509.632 57.3333 510C57.3333 510.368 57.0349 510.667 56.6667 510.667C56.2985 510.667 56 510.368 56 510C56 509.632 56.2985 509.333 56.6667 509.333ZM28 498.667H36.6667V500H28V498.667ZM37.3333 501.333H29.3333V502.667H37.3333V501.333Z" fill="#495567"/>
</svg>

<svg width="96" height="562" fill="none" xmlns="http://www.w3.org/2000/svg"><path d="M49 512V0" stroke="#E5ECF4" stroke-width="15"/><circle cx="48" cy="174" r="48" fill="#FCB72B"/><path fill-rule="evenodd" clip-rule="evenodd" d="M53.8 150H33.01a4.003 4.003 0 0 0-3.997 3.998v39.979a4.002 4.002 0 0 0 3.998 3.997H53v-1.43a18.175 18.175 0 0 1 3.064-10.119.8.8 0 0 0-.1-1.009l-5.597-5.598a2.592 2.592 0 0 1 .19-3.837 2.694 2.694 0 0 1 3.58.275l7.893 7.893 1.13-1.131-5.362-5.364v-23.656A4.003 4.003 0 0 0 53.8 150Zm2.398 26.055-.93-.931a4.303 4.303 0 0 0-5.729-.378 4.192 4.192 0 0 0-.303 6.203l5.142 5.142a19.765 19.765 0 0 0-2.971 10.284H33.01a2.399 2.399 0 0 1-2.399-2.398v-2.399h19.99v-1.599h-19.99v-33.582h25.586v19.658Zm-25.586-21.258h25.586v-.799a2.399 2.399 0 0 0-2.398-2.399H33.01a2.399 2.399 0 0 0-2.398 2.399v.799ZM60.155 168.6l-1.078 1.179 4.903 4.495a5.611 5.611 0 0 1 1.813 4.127v19.573h1.6v-19.573a7.217 7.217 0 0 0-2.334-5.306l-4.904-4.495Zm-26.345-4.208h3.199c.883 0 1.599-.715 1.599-1.599v-3.198c0-.883-.716-1.599-1.6-1.599H33.81c-.883 0-1.599.716-1.599 1.599v3.198c0 .884.716 1.599 1.6 1.599Zm0-4.797h3.199v3.198H33.81v-3.198Zm11.194 4.797h-3.198c-.883 0-1.6-.715-1.6-1.599v-3.198a1.6 1.6 0 0 1 1.6-1.599h3.198c.884 0 1.6.716 1.6 1.599v3.198c0 .884-.716 1.599-1.6 1.599Zm0-4.797h-3.198v3.198h3.198v-3.198Zm4.798 4.797H53c.883 0 1.6-.715 1.6-1.599v-3.198c0-.883-.717-1.599-1.6-1.599h-3.198c-.884 0-1.6.716-1.6 1.599v3.198c0 .884.716 1.599 1.6 1.599Zm0-4.797H53v3.198h-3.198v-3.198Zm-12.793 12.793H33.81c-.883 0-1.599-.716-1.599-1.599v-3.198a1.6 1.6 0 0 1 1.6-1.6h3.198a1.6 1.6 0 0 1 1.599 1.6v3.198c0 .883-.716 1.599-1.6 1.599Zm0-4.797H33.81v3.198h3.199v-3.198Zm-3.199 12.793h3.199c.883 0 1.599-.716 1.599-1.599v-3.199c0-.883-.716-1.599-1.6-1.599H33.81c-.883 0-1.599.716-1.599 1.599v3.199c0 .883.716 1.599 1.6 1.599Zm0-4.798h3.199v3.199H33.81v-3.199Zm11.194-3.198h-3.198a1.6 1.6 0 0 1-1.6-1.599v-3.198a1.6 1.6 0 0 1 1.6-1.6h3.198a1.6 1.6 0 0 1 1.6 1.6v3.198c0 .883-.716 1.599-1.6 1.599Zm0-4.797h-3.198v3.198h3.198v-3.198Zm4.798 4.797H53c.883 0 1.6-.716 1.6-1.599v-3.198a1.6 1.6 0 0 0-1.6-1.6h-3.198a1.6 1.6 0 0 0-1.6 1.6v3.198c0 .883.716 1.599 1.6 1.599Zm0-4.797H53v3.198h-3.198v-3.198Zm-4.798 12.793h-3.198a1.6 1.6 0 0 1-1.6-1.599v-3.199a1.6 1.6 0 0 1 1.6-1.599h3.198c.884 0 1.6.716 1.6 1.599v3.199c0 .883-.716 1.599-1.6 1.599Zm0-4.798h-3.198v3.199h3.198v-3.199ZM33.81 188.38h3.199a1.6 1.6 0 0 0 1.599-1.6v-3.198c0-.883-.716-1.599-1.6-1.599H33.81c-.883 0-1.599.716-1.599 1.599v3.198a1.6 1.6 0 0 0 1.6 1.6Zm0-4.798h3.199v3.198H33.81v-3.198Zm11.194 4.798h-3.198a1.6 1.6 0 0 1-1.6-1.6v-3.198a1.6 1.6 0 0 1 1.6-1.599h3.198c.884 0 1.6.716 1.6 1.599v3.198a1.6 1.6 0 0 1-1.6 1.6Zm0-4.798h-3.198v3.198h3.198v-3.198Zm-.8 9.595h-1.598v1.599h1.599v-1.599Z" fill="#495567"/><circle cx="48" cy="344" r="48" fill="#FCB72B"/><path d="M45.07 358.301a.836.836 0 0 0-.585.242.835.835 0 0 0-.242.585c0 .217.088.431.242.585a.836.836 0 0 0 .585.242c.217 0 .43-.089.584-.242a.833.833 0 0 0 .243-.585.835.835 0 0 0-.243-.585.837.837 0 0 0-.584-.242Z" fill="#000"/><path fill-rule="evenodd" clip-rule="evenodd" d="m61.54 344.419-1.928-8.706c.52-.07.979-.335 1.301-.718.381.238.83.376 1.312.376h1.654c.456 0 .826-.37.826-.827v-3.307a.827.827 0 0 0-.826-.827h-1.654a2.47 2.47 0 0 0-1.346.398 2.06 2.06 0 0 0-1.546-.698h-4.88c-.878 0-1.628.55-1.927 1.323h-1.96c-1.186 0-2.15.964-2.15 2.15 0 1.185.965 2.149 2.15 2.149h4.256v1.667a.827.827 0 1 0 1.654 0v-1.667h1.447l2.075 9.379-3.928 6.996a2.428 2.428 0 0 1-2.113 1.235h-9.806c-.411-3.443-3.346-6.121-6.898-6.121a6.88 6.88 0 0 0-4.287 1.48l-.005.004a6.906 6.906 0 0 0-2.607 4.637h-1.698c.108-5.944 4.977-10.746 10.946-10.746h5.866a.84.84 0 0 1 .84.84v7.426c0 .456.37.827.826.827h4.4a4.934 4.934 0 0 0 4.932-4.927l.004-2.747a.827.827 0 1 0-1.654-.002l-.004 2.747a3.278 3.278 0 0 1-3.278 3.274h-3.573v-6.599a2.48 2.48 0 0 0-.293-1.172 2.482 2.482 0 0 0 1.244-2.149 2.484 2.484 0 0 0-2.48-2.481h-3.019c-.29 0-.568.05-.827.142v-7.253a2.484 2.484 0 0 0-2.48-2.481H34.77c-3.867 0-7.082 2.839-7.674 6.542a.834.834 0 0 0-.038.25v.014c-.039.317-.059.639-.059.966v4.301c0 1.242.918 2.274 2.11 2.453l1.832 1.831A12.566 12.566 0 0 0 27 353.544v.625c0 .457.37.827.827.827h4.647a.847.847 0 0 0-.017.165c0 1.2.444 2.298 1.176 3.14h-5.806a.827.827 0 1 0 0 1.654h9.33l.028.001.068.001a4.801 4.801 0 0 0 4.796-4.796.84.84 0 0 0-.016-.165h11.924a4.086 4.086 0 0 0 3.281-1.656h1.047a4.774 4.774 0 0 0 .815 4.961H48.377a.827.827 0 1 0 0 1.654h14.248l.096.002a4.801 4.801 0 0 0 4.796-4.796c0-.631-.125-1.248-.36-1.821h1.352c.457 0 .827-.37.827-.827 0-4.365-3.47-7.934-7.797-8.094Zm-18.127-5.132h3.018a.828.828 0 0 1 0 1.654h-3.018a.828.828 0 0 1 0-1.654Zm-14.757-3.576-.002.102v4.301c0 .456.37.827.826.827h10.625a.828.828 0 0 0 .827-.827v-9.592a.828.828 0 0 0-.827-.827h-5.334a6.129 6.129 0 0 0-5.845 4.311h8.78a.827.827 0 1 1 0 1.654h-9.048l-.002.051Zm2.821 6.884h1.892c-.397.226-.78.475-1.15.742l-.742-.742Zm5.808 15.708a3.146 3.146 0 0 0 3.11-3.142c0-.056.006-.112.017-.165h-6.317a.84.84 0 0 1 .016.165 3.145 3.145 0 0 0 3.047 3.14h.095l.019.001.013.001Zm-5.262-4.961a5.262 5.262 0 0 1 1.96-3.337l.007-.005a5.239 5.239 0 0 1 3.263-1.125 5.302 5.302 0 0 1 5.23 4.467h-10.46Zm31.029-21.278h-.827a.828.828 0 0 0 0 1.654h.827v-1.654Zm-12.982 1.519c0-.274.222-.497.496-.497h1.822v.582c0 .141.014.278.04.411h-1.862a.497.497 0 0 1-.496-.496Zm4.382.496h4.881c.227 0 .411-.184.411-.411v-1.494a.412.412 0 0 0-.41-.411h-4.882a.412.412 0 0 0-.41.411v1.494c0 .227.184.411.41.411Zm11.411 21.082a3.146 3.146 0 0 1-3.11 3.142l-.007-.001h-.007l-.018-.001h-.095a3.145 3.145 0 0 1-3.047-3.14c0-.657.205-1.292.582-1.821h5.12c.377.529.582 1.164.582 1.821Zm-4.507-9.091-3.153 5.616h9.426a6.454 6.454 0 0 0-6.273-5.616Z" fill="#495567"/><path d="M55.649 341.533a.827.827 0 1 0 0-1.653h-.003a.826.826 0 1 0 .003 1.653Z" fill="#000"/><circle cx="48" cy="514" r="48" fill="#FCB72B"/><path fill-rule="evenodd" clip-rule="evenodd" d="M64.171 512H66a.666.666 0 0 0 .667-.667V506a.667.667 0 0 0-.667-.667h-6.255l-1.078-2.157v-2.509A.666.666 0 0 0 58 500h-4a.666.666 0 0 0-.667.667v2.666c0 .369.299.667.667.667h3.588l1.079 2.157V510a2 2 0 1 0-4 0v-1.333A.666.666 0 0 0 54 508h-5.251l-2.082-.521v-10.812A2.667 2.667 0 0 0 44 494h-2.667a2.667 2.667 0 0 0-2.666 2.667V504h-3.334a2 2 0 0 0-2 2v2h-4.666a.666.666 0 0 0-.472 1.138l1.529 1.529-1.529 1.528a.668.668 0 0 0 .472 1.138h6.666a2 2 0 0 0 2-2v-2h1.334V516h-2a4.667 4.667 0 0 0-4.614 4H30a.666.666 0 0 0-.667.667v2.666c0 .369.299.667.667.667h2v1.333h-3.333A.667.667 0 0 0 28 526v2.667c0 .368.299.666.667.666H36a4.667 4.667 0 1 0 9.333 0h12a4.667 4.667 0 1 0 9.334 0h.666a.667.667 0 0 0 .65-.816L64.171 512Zm-9.504-2a2 2 0 1 0 4 0v14h-2v-.667a2 2 0 0 0-2-2V514a.667.667 0 0 0-.667-.667h-7.333v-1.812l1.838.459a.68.68 0 0 0 .162.02H54a.666.666 0 0 0 .667-.667V510Zm2.666-7.333h-2.666v-1.334h2.666v1.334ZM32 528v-1.333h-2.667V528H32Zm0-5.333h-1.333v-1.334H32v1.334Zm33.333-16H64v4h1.333v-4Zm-5.333 0h2.667v4H60v-4Zm-4.667 16.666a.666.666 0 0 0-.666-.666H52V524h3.333v-.667Zm-6.828-14.02c.053.014.107.02.162.02h4.666v1.334H48.75L44 509.479v-1.292l4.505 1.126Zm-7.172-13.98c-.736 0-1.333.597-1.333 1.334v2.666h2V498c0-.368.298-.667.667-.667h2.666v-.666c0-.737-.597-1.334-1.333-1.334h-2.667ZM40 500.667h2.667a.667.667 0 0 0 .666-.667v-1.333h2v1.504l-5.333 1.6v-1.104Zm5.333 4v-3.104l-5.333 1.6v1.504h5.333Zm0 1.333v1.146l-1.838-.459a.664.664 0 0 0-.828.646V510c0 .306.208.572.504.647l2.162.54v2.146H40V506h5.333Zm8 15.333v-6.666H40V516h11.333c.369 0 .667.298.667.667v4.666h1.333Zm-17.333-10a.666.666 0 0 1-.667.667h-5.057l.862-.862a.667.667 0 0 0 0-.943l-.862-.862H36v2ZM34.667 506v2h4v-2.667h-3.334a.667.667 0 0 0-.666.667Zm6 26.667a3.338 3.338 0 0 1-3.334-3.334h1.334a2 2 0 1 0 4 0H44a3.338 3.338 0 0 1-3.333 3.334Zm0-2.667a.666.666 0 0 0 .666-.667H40c0 .369.298.667.667.667Zm4.666-2H36v-6.667c0-.368.298-.666.667-.666h8c.368 0 .666.298.666.666V528Zm1.334 0H48v-7.333a3.338 3.338 0 0 0-3.333-3.334h-8a3.338 3.338 0 0 0-3.334 3.334V528h1.334v-6.667a2 2 0 0 1 2-2h8a2 2 0 0 1 2 2V528Zm1.26-10.667h2.74V524h-1.334v-3.333a4.652 4.652 0 0 0-1.406-3.334ZM62 532.667a3.338 3.338 0 0 1-3.333-3.334H60a2 2 0 1 0 4 0h1.333A3.338 3.338 0 0 1 62 532.667ZM62 530a.666.666 0 0 0 .667-.667h-1.334c0 .369.299.667.667.667Zm-2-2v-4.667h1.333V522H60v-10h2.8l3.692 16H60Zm-10.667 0h9.334v-2.667h-9.334V528ZM64 522h-1.333v1.333H64V522Zm-26.667 0h1.334v1.333h-1.334V522Zm4 0H40v1.333h1.333V522Zm1.334 0H44v1.333h-1.333V522Zm14-12.667a.667.667 0 1 1-.001 1.334.667.667 0 0 1 0-1.334ZM28 498.667h8.667V500H28v-1.333Zm9.333 2.666h-8v1.334h8v-1.334Z" fill="#495567"/></svg>
